X: 1092
T: Hâlâ Kanayan Kalbimi...
C: Yorgo Bacanos
O: Turkey
F: http://compmusic.upf.edu/node/140
N: mahur--sarki--senginsemai--hala_kanayan--yorgo_bacanos
N: makam= mahur
N: form= sarki
N: usul= senginsemai = 6/4
M: 6/4
L: 1/16
K: C ^9/8f   
Q: 1/4=66
%%MIDI tuningsystem comma53
d2ef gg/f/ge dBce dBcA G6z2  | d2ef gg/f/ge dBAF GBdg b6z2  | 
w:  ARANAĞME  |   | 
a3b c'3b a3g f2(3gfg e6d2  | g6e2 (3ded(3cdc (3BcB(3ABA G6z2  | 
w:   |   | 
d2ef gg/f/ge dBce dBcA G6z2  | d2ef gg/f/ge dBAF GBdg b6z2  | 
w:  ARANAĞME  |   | 
a3b c'3b a3g f2(3gfg e6d2  | g6e2 (3ded(3cdc (3BcB(3ABA G6z2  | 
w:   |   | 
g2fe d2ef g2a2 (3bab(3c'ba g6z2  | \
w:  Hâ *  *  lâ  *  *  ka *  na *  *  *  *  *  yan   | 
g{b}a/g/=f/e/d cB/A/Bc defe dcBA G6z2  | 
w:  kal *  *  *  *  *  *  bi *  *  *  *  mi  *  *  *  *  *  *  *  aşk   | 
d2g4{g}^fe d4 b4 a4 ac'ba  | g6=fe d2{e}dc (3BABcA G6z2  | 
w:  a *  *  *  *  te şi  dağ  |  lar   SAZ  | 
g2fe d2ef g2a2 (3bab(3c'ba g6z2  | \
w:  Hâ *  *  lâ  *  *  ka *  na *  *  *  *  *  yan   | 
g{b}a/g/=f/e/d cB/A/Bc defe dcBA G6z2  | 
w:  kal *  *  *  *  *  *  bi *  *  *  *  mi  *  *  *  *  *  *  *  aşk   | 
d2g4{g}^fe d4 b4 a4 ac'ba  | g6=fe d4 e2^9/8f2 g6z2  | \
w:  a *  *  *  *  te şi  dağ  |  lar   SAZ  | 
d4 g3a b3a g{a}g/f/ge d8  | 
w:  Üm mî *  di  *  kı *  *  *  *  *  rıl  | 
d2e2 =f2.e2 d2c2 _1/4B2A2 d6e^9/8f  | \
w:  mış  *  *  *  be *  ni  *  â  | 
g6=fe d3c B4 A3B c{d}c/B/cA  | 
w:  ti *  *  ye  *  ne  bağ  | 
G4 Gg=fe d4 e2^9/8f2 g6z2  | d4 g3a b3a g{a}g/f/ge d8  | 
w:  lar   *  SAZ  |  Üm mî *  di  *  kı *  *  *  *  *  rıl  | 
d2e2 =f2.e2 d2c2 _1/4B2A2 d6e^9/8f  | \
w:  mış  *  *  *  be *  ni  *  â  | 
g6=fe d3c B4 A3B c{d}c/B/cA  | 
w:  ti *  *  ye  *  ne  bağ  | 
G8 b4 ^3/4abc'b (3bag(3fe^d (3c'bab2  | \
w:  lar   SAZ  | 
b3^3/4a g3f g3/2f/e^d efga b6a2  | 
w:  Gön *  lüm *  de *  *  *  ki  *  *  *  ök  | 
g6f2 e2^d2 e2{a}gf f6e2  | (3eedd4ef g{a}g/f/ge d2b2 a4 ac'ba  | 
w:  süz *  lü *  ğe  *  *  *  hat  |  tâ  *  *  *  *  *  gü *  *  *  *  *  len  *  ağ  | 
g8 b4 ^3/4abc'b (3bag(3fe^d (3c'bab2  | \
w:  lar   SAZ  | 
b3^3/4a g3f g3/2f/e^d efga b6a2  | 
w:  Gön *  lüm *  de *  *  *  ki  *  *  *  ök  | 
g6f2 e2^d2 e2{a}gf f6e2  | (3eedd4ef g{a}g/f/ge d2b2 a4 ac'ba  | 
w:  süz *  lü *  ğe  *  *  *  hat  |  tâ  *  *  *  *  *  gü *  *  *  *  *  len  *  ağ  | 
g6=fe d4 e2^9/8f2 g6z2  | d4 g3a b3a g{a}g/f/ge d8  | \
w:  lar   SAZ  |  Üm mî *  di  *  kı *  *  *  *  *  rıl  | 
d2e2 =f2.e2 d2c2 _1/4B2A2 d6e^9/8f  | 
w:  mış  *  *  *  be *  ni  *  â  | 
g6=fe d3c B4 A3B c{d}c/B/cA  | G4 Gg=fe d4 e2^9/8f2 g6z2  | 
w:  ti *  *  ye  *  ne  bağ  |  lar   *  SAZ  | 
d4 g3a b3a g{a}g/f/ge d8  | d2e2 =f2.e2 d2c2 _1/4B2A2 d6e^9/8f  | 
w:  Üm mî *  di  *  kı *  *  *  *  *  rıl  |  mış  *  *  *  be *  ni  *  â  | 
g6=fe d3c B4 A3B c{d}c/B/cA  | G4 Ggfe d3c (3BABcA G6z2  | 
w:  ti *  *  ye  *  ne  bağ  |  *  KARAR  | 
|


